packages/calcite-ui-icons/icons/geometric-network-32.svg

<?xml version="1.0" encoding="UTF-8"?><svg id="icons" xmlns="http://www.w3.org/2000/svg" viewBox="0 0 32 32"><defs><style>.cls-1{fill:none;}</style></defs><rect class="cls-1" width="32" height="32"/><path d="M28.82086,25.81989c.69415-.31372,1.17914-1.00867,1.17914-1.81989v-15c0-1.10461-.89545-2-2-2h-7.84772c.81079-.5376,1.34772-1.45636,1.34772-2.5,0-1.6543-1.3457-3-3-3s-3,1.3457-3,3c0,1.04364.53693,1.9624,1.34772,2.5h-7.84772c-1.10455,0-1.998.89539-1.998,2l-.002,6.87317c-.53326-.82214-1.44818-1.37317-2.5-1.37317-1.6543,0-3,1.3457-3,3s1.3457,3,3,3c1.05182,0,1.96674-.55103,2.5-1.37317v4.87317c0,1.10455.89545,2,2,2h16.5777l.12079.11646c-.72333.54828-1.19849,1.40796-1.19849,2.38354,0,1.6543,1.3457,3,3,3s3-1.3457,3-3c0-1.17816-.68866-2.18958-1.67914-2.68011ZM4.5,19.5c-1.10254,0-2-.89746-2-2s.89746-2,2-2,2,.89746,2,2-.89746,2-2,2ZM16.5,4.5c0-1.10254.89746-2,2-2s2,.89746,2,2-.89746,2-2,2-2-.89746-2-2ZM20.5,17.5c0,1.10254-.89746,2-2,2s-2-.89746-2-2,.89746-2,2-2,2,.89746,2,2ZM8,9c0-.55176.44824-1,1-1h9v6.55054c-1.25244.21204-2.23743,1.19702-2.44946,2.44946h-7.55054v-8ZM9,25c-.55176,0-1-.44824-1-1v-6h7.55054c.23975,1.41589,1.46637,2.5,2.94946,2.5.40277,0,.78607-.0824,1.13727-.22699l4.90314,4.72699h-15.54041ZM20.50232,19.71783c.60803-.54938.99768-1.33569.99768-2.21783,0-1.48309-1.08411-2.70972-2.5-2.94946v-6.55054h9c.55176,0,1,.44824,1,1v15c0,.55176-.44824,1-1,1h-2.01862l-5.47906-5.28217ZM27.5,30.5c-1.10254,0-2-.89746-2-2s.89746-2,2-2,2,.89746,2,2-.89746,2-2,2Z"/></svg>

<svg xmlns="http://www.w3.org/2000/svg" viewBox="0 0 32 32"><path d="M0 0h32v32H0z" style="fill:none"/><path d="M28.82 25.82A2 2 0 0 0 30 24V9a2 2 0 0 0-2-2h-7.848A2.997 2.997 0 0 0 18.5 1.5 2.997 2.997 0 0 0 16.848 7H9a2 2 0 0 0-1.998 2L7 15.873A2.98 2.98 0 0 0 4.5 14.5c-1.654 0-3 1.346-3 3s1.346 3 3 3A2.98 2.98 0 0 0 7 19.127V24a2 2 0 0 0 2 2h16.578l.12.116A2.99 2.99 0 0 0 24.5 28.5c0 1.654 1.346 3 3 3s3-1.346 3-3c0-1.178-.689-2.19-1.68-2.68M4.5 19.5c-1.103 0-2-.897-2-2s.897-2 2-2 2 .897 2 2-.897 2-2 2m12-15c0-1.103.897-2 2-2s2 .897 2 2-.897 2-2 2-2-.897-2-2m4 13c0 1.103-.897 2-2 2s-2-.897-2-2 .897-2 2-2 2 .897 2 2M8 9a1 1 0 0 1 1-1h9v6.55A2.99 2.99 0 0 0 15.55 17H8zm1 16a1 1 0 0 1-1-1v-6h7.55a3 3 0 0 0 2.95 2.5 3 3 0 0 0 1.137-.227L24.54 25zm11.502-5.282c.608-.55.998-1.336.998-2.218a3 3 0 0 0-2.5-2.95V8h9a1 1 0 0 1 1 1v15a1 1 0 0 1-1 1h-2.019zM27.5 30.5c-1.103 0-2-.897-2-2s.897-2 2-2 2 .897 2 2-.897 2-2 2"/></svg>
